svgs/270C-1F3FC.svg

<svg xmlns="http://www.w3.org/2000/svg" xmlns:xlink="http://www.w3.org/1999/xlink" preserveAspectRatio="none" viewBox="0 0 72 72"><defs><path id="a" fill="#E0BB95" d="M97.85 9.6q-.5-5.65-4.7-7Q87.4.75 83.55 5q-1.15 1.3-2 4.2-.5 1.85-1.5 6.7-.45 2.7-.95 4.7l-1.75 8.45q-3.45 16.5-4.2 19l-.25.8q-.85 2.8-1.6 4-1.05 1.65-2.75 1.95-1.7-.15-2.9-1.6-.85-1.1-2-3.75l-.35-.75q-.55-1.25-6.55-18.4l-4.3-12.65q-1.65-4.85-2.3-6.45-1.2-2.85-2.5-3.95-4.35-3.75-9.8-1.2-4 1.9-3.8 7.55.1 3.2 1.95 9.2l.4 1.45q1.85 6.2 5.95 18 3.8 10.9 4.6 12.65.95 2 3.05 8.45l1.95 5.05.1.15-1.35.75-3.4-9q-1.4-3.7-4.6-4.8-2.8-1-6.1.25-3.1 1.15-4 4.6-.75 2.85.2 5.65.8 2.4 4.8 10.4l-1.75.95-1.95-3.9q-3.35-6.25-9.6-3.65-2.75 1.2-3.35 4.9-.5 3.05.55 5.65.35 1 1.75 3.8l2.05 7.75q2.35 8.7 3.9 13.4l.25.7q.5 1.6 1 2.8 1.05 2.65 1.15 2.85 3.45 6.75 10 10.55 6.4 3.7 14.1 3.7.3 0 4.6.1 5.05-.05 9.75-1 14.85-3 22.2-13.55 1.65-2.35 2.55-5.35 1.3-4 1.65-10 .4-6.75-.7-11.3-1.9-7.65-10.2-11.9l1.3-6.65v-.05q.7-2.2.85-2.95l.45-2.3q1.35-6.7 2-8.8.6-1.85 3-13.05 2.65-12.25 3.65-18.65l.25-1.5q1.1-6.15.8-9.35z"/><path id="b" fill="#C48E6A" d="M85.5 72.85l.65-3.4q-6.5-2.9-14-4.35-2.7-.55-4.15-.85-2.6-.5-4.15-.5-6.85 0-11.2 2.6L47.6 56.3q0 1.05-.5 1.35-.65.4-1.3-.05l-.1.05q1.05 1.25 1.6 2.7l3 7.95-.6.75-1.4 3.45q-.85 4.15 1.8 7.7l1.2 1.15q1.8 1.35 4.65 2.15.8 3-.8 5.25-.8 1.1-1.75 1.6Q50 92.1 46.55 90l-2.8-2.45q-1-.95-4.55-7.85l-4.5-9.35q-.05 1.05-.6 1.4-.6.4-1.3-.1l-.05.05q.65.8 1.15 1.75 2.15 4 5 10.5v-.05l.7 1.6q1.6 3.5 1.9 5.65.15 1.05 0 1.4-.55 2.5-3.1 3.65l-2.45.65q-2.8.3-5.45-2l-2.15-2.4-5.1-8.35 1.95 7.45q1.45 2.85 3.45 4.85.95 1 1.65 1.4 3.55 2.4 7.55 1.55 2.05-.4 3.35-1.3 1.2-.85 1.95-2.2l.5-1.15q.45-1.55.1-3.45 3.25 2.9 7.3 2.8 2-.05 3.35-.7 3-1.6 4.05-4.75.7-2.1.4-4.5 1.25.2 2.15.25 6.4.6 8.65 1.25l3.3 1.45q3.4 2 3.75 4.7L76.6 93q-.3 1.6-1 3.05l-.15 1q0 1.05.8 1.3.5.15 1.4-.15 1-.3 1.65-.9 1.1-.9 1.55-3.15.25-.85.1-2.1-.25-2.55-2.3-4.75-.55-.65-1.5-1.45-1.9-1.6-3.9-2.3-3.05-1.05-4.35-1.35-2.1-.5-6-.9-1.5-.1-3.5-.55-4-.85-6.3-2.5-.75-.6-1.25-1.7-.95-2.2.5-4.7.2-.4.7-.95 1.05-1.1 2.55-1.9 4.8-2.6 12.6-1.5l5.9 1.3q6.8 1.75 11.4 4.05z"/><path id="c" fill="#E0BB95" d="M97.85 9.6q-.5-5.65-4.7-7Q87.4.75 83.55 5q-1.15 1.3-2 4.2-.5 1.85-1.5 6.7-.45 2.7-.95 4.7l-1.75 8.45q-3.45 16.5-4.2 19l-.25.8q-.85 2.8-1.6 4-1.05 1.65-2.75 1.95-1.7-.15-2.9-1.6-.85-1.1-2-3.75l-.35-.75q-.55-1.25-6.55-18.4l-4.3-12.65q-1.65-4.85-2.3-6.45-1.2-2.85-2.5-3.95-4.35-3.75-9.8-1.2-4 1.9-3.8 7.55.1 3.2 1.95 9.2l.4 1.45q1.85 6.2 5.95 18 3.8 10.9 4.6 12.65.95 2 3.05 8.45l1.95 5.05.1.15-1.35.75-3.4-9q-1.4-3.7-4.6-4.8-2.8-1-6.1.25-3.1 1.15-4 4.6-.75 2.85.2 5.65.8 2.4 4.8 10.4l-1.75.95-1.95-3.9q-3.35-6.25-9.6-3.65-2.75 1.2-3.35 4.9-.5 3.05.55 5.65.35 1 1.75 3.8l2.05 7.75q2.35 8.7 3.9 13.4l.25.7q.5 1.6 1 2.8 1.05 2.65 1.15 2.85 3.45 6.75 10 10.55 6.4 3.7 14.1 3.7.3 0 4.6.1 5.05-.05 9.75-1 14.85-3 22.2-13.55 1.65-2.35 2.55-5.35 1.3-4 1.65-10 .4-6.75-.7-11.3-1.9-7.65-10.2-11.9l2.6-11.95q1.35-6.7 2-8.8.6-1.85 3-13.05 2.65-12.25 3.65-18.65l.25-1.5q1.1-6.15.8-9.35z"/><path id="d" fill="#C48E6A" d="M85.55 72.85l.75-3.35q-6.65-2.95-14.15-4.4-2.7-.55-4.15-.85-2.6-.5-4.15-.5-6.85 0-11.2 2.6L47.6 56.3q0 1.05-.5 1.35-.65.4-1.3-.05l-.05.05q1.05 1.3 1.55 2.7 1.1 2.7 3 7.95l-.6.75-1.4 3.45q-.85 4.15 1.8 7.7l1.2 1.15q1.8 1.35 4.65 2.15.8 3-.8 5.25-.8 1.1-1.75 1.6-3.35 1.75-6.85-.35l-2.8-2.45q-1-.95-4.55-7.85l-4.5-9.35q-.05 1.05-.55 1.4-.65.4-1.35-.1l-.05.05q.65.8 1.15 1.75 2.15 4 5 10.5v-.05l.7 1.6q1.6 3.5 1.9 5.65.15 1.05 0 1.4-.55 2.5-3.1 3.65l-2.45.65q-2.8.3-5.45-2l-2.15-2.4-5.05-8.35 1.95 7.45q1.45 2.85 3.4 4.85.95 1 1.65 1.4 3.55 2.4 7.55 1.55 2.05-.4 3.35-1.3 1.2-.85 1.95-2.2l.5-1.15q.45-1.55.1-3.45 3.25 2.9 7.3 2.8 2-.05 3.35-.7 3-1.6 4.05-4.75.7-2.1.4-4.5l2.15.25q6.4.55 8.65 1.25L73 87.05q3.4 2 3.7 4.7L76.6 93q-.25 1.6-1 3.05l-.15 1q0 1.05.8 1.3.5.15 1.4-.15 1-.3 1.65-.9 1.1-.9 1.55-3.15.25-.85.1-2.1-.25-2.55-2.3-4.75-.55-.65-1.5-1.45-1.9-1.6-3.9-2.3-3.1-1.05-4.3-1.35-2.15-.5-6-.9-1.5-.1-3.5-.55-4-.85-6.35-2.5-.75-.6-1.25-1.7-.95-2.2.5-4.7.2-.4.7-.95 1.05-1.1 2.55-1.9 4.8-2.6 12.6-1.5l5.95 1.35q6.85 1.75 11.4 4z"/></defs><use transform="scale(.5625)" xlink:href="#a"/><use transform="scale(.5625)" xlink:href="#b"/><use transform="scale(.5625)" xlink:href="#c"/><use transform="scale(.5625)" xlink:href="#d"/></svg>

<svg xmlns="http://www.w3.org/2000/svg" version="1.1" xmlns:xlink="http://www.w3.org/1999/xlink" preserveAspectRatio="none" x="0px" y="0px" width="72px" height="72px" viewBox="0 0 72 72">
<defs>
<g id="Layer0_0_MEMBER_0_FILL">
<path fill="#E0BB95" stroke="none" d="
M 97.85 9.6
Q 97.35 3.95 93.15 2.6 87.4 0.75 83.55 5 82.4 6.3 81.55 9.2 81.05 11.05 80.05 15.9 79.6 18.6 79.1 20.6
L 77.35 29.05
Q 73.9 45.55 73.15 48.05
L 72.9 48.85
Q 72.05 51.65 71.3 52.85 70.25 54.5 68.55 54.8 66.85 54.65 65.65 53.2 64.8 52.1 63.65 49.45
L 63.3 48.7
Q 62.75 47.45 56.75 30.3
L 52.45 17.65
Q 50.8 12.8 50.15 11.2 48.95 8.35 47.65 7.25 43.3 3.5 37.85 6.05 33.85 7.95 34.05 13.6 34.15 16.8 36 22.8
L 36.4 24.25
Q 38.25 30.45 42.35 42.25 46.15 53.15 46.95 54.9 47.9 56.9 50 63.35
L 51.95 68.4 52.05 68.55 50.7 69.3 47.3 60.3
Q 45.9 56.6 42.7 55.5 39.9 54.5 36.6 55.75 33.5 56.9 32.6 60.35 31.85 63.2 32.8 66 33.6 68.4 37.6 76.4
L 35.85 77.35 33.9 73.45
Q 30.55 67.2 24.3 69.8 21.55 71 20.95 74.7 20.45 77.75 21.5 80.35 21.85 81.35 23.25 84.15
L 25.3 91.9
Q 27.65 100.6 29.2 105.3
L 29.45 106
Q 29.95 107.6 30.45 108.8 31.5 111.45 31.6 111.65 35.05 118.4 41.6 122.2 48 125.9 55.7 125.9 56 125.9 60.3 126 65.35 125.95 70.05 125 84.9 122 92.25 111.45 93.9 109.1 94.8 106.1 96.1 102.1 96.45 96.1 96.85 89.35 95.75 84.8 93.85 77.15 85.55 72.9
L 86.85 66.25 86.85 66.2
Q 87.55 64 87.7 63.25
L 88.15 60.95
Q 89.5 54.25 90.15 52.15 90.75 50.3 93.15 39.1 95.8 26.85 96.8 20.45
L 97.05 18.95
Q 98.15 12.8 97.85 9.6 Z"/>
</g>

<g id="Layer0_0_MEMBER_1_FILL">
<path fill="#C48E6A" stroke="none" d="
M 85.5 72.85
L 86.15 69.45
Q 79.65 66.55 72.15 65.1 69.45 64.55 68 64.25 65.4 63.75 63.85 63.75 57 63.75 52.65 66.35
L 47.6 56.3
Q 47.6 57.35 47.1 57.65 46.45 58.05 45.8 57.6
L 45.7 57.65
Q 46.75 58.9 47.3 60.35
L 50.3 68.3 49.7 69.05 48.3 72.5
Q 47.45 76.65 50.1 80.2
L 51.3 81.35
Q 53.1 82.7 55.95 83.5 56.75 86.5 55.15 88.75 54.35 89.85 53.4 90.35 50 92.1 46.55 90
L 43.75 87.55
Q 42.75 86.6 39.2 79.7
L 34.7 70.35
Q 34.65 71.4 34.1 71.75 33.5 72.15 32.8 71.65
L 32.75 71.7
Q 33.4 72.5 33.9 73.45 36.05 77.45 38.9 83.95
L 38.9 83.9 39.6 85.5
Q 41.2 89 41.5 91.15 41.65 92.2 41.5 92.55 40.95 95.05 38.4 96.2
L 35.95 96.85
Q 33.15 97.15 30.5 94.85
L 28.35 92.45 23.25 84.1 25.2 91.55
Q 26.65 94.4 28.65 96.4 29.6 97.4 30.3 97.8 33.85 100.2 37.85 99.35 39.9 98.95 41.2 98.05 42.4 97.2 43.15 95.85
L 43.65 94.7
Q 44.1 93.15 43.75 91.25 47 94.15 51.05 94.05 53.05 94 54.4 93.35 57.4 91.75 58.45 88.6 59.15 86.5 58.85 84.1 60.1 84.3 61 84.35 67.4 84.95 69.65 85.6
L 72.95 87.05
Q 76.35 89.05 76.7 91.75
L 76.6 93
Q 76.3 94.6 75.6 96.05
L 75.45 97.05
Q 75.45 98.1 76.25 98.35 76.75 98.5 77.65 98.2 78.65 97.9 79.3 97.3 80.4 96.4 80.85 94.15 81.1 93.3 80.95 92.05 80.7 89.5 78.65 87.3 78.1 86.65 77.15 85.85 75.25 84.25 73.25 83.55 70.2 82.5 68.9 82.2 66.8 81.7 62.9 81.3 61.4 81.2 59.4 80.75 55.4 79.9 53.1 78.25 52.35 77.65 51.85 76.55 50.9 74.35 52.35 71.85 52.55 71.45 53.05 70.9 54.1 69.8 55.6 69 60.4 66.4 68.2 67.5
L 74.1 68.8
Q 80.9 70.55 85.5 72.85 Z"/>
</g>

<g id="Layer0_0_MEMBER_2_FILL">
<path fill="#E0BB95" stroke="none" d="
M 97.85 9.6
Q 97.35 3.95 93.15 2.6 87.4 0.75 83.55 5 82.4 6.3 81.55 9.2 81.05 11.05 80.05 15.9 79.6 18.6 79.1 20.6
L 77.35 29.05
Q 73.9 45.55 73.15 48.05
L 72.9 48.85
Q 72.05 51.65 71.3 52.85 70.25 54.5 68.55 54.8 66.85 54.65 65.65 53.2 64.8 52.1 63.65 49.45
L 63.3 48.7
Q 62.75 47.45 56.75 30.3
L 52.45 17.65
Q 50.8 12.8 50.15 11.2 48.95 8.35 47.65 7.25 43.3 3.5 37.85 6.05 33.85 7.95 34.05 13.6 34.15 16.8 36 22.8
L 36.4 24.25
Q 38.25 30.45 42.35 42.25 46.15 53.15 46.95 54.9 47.9 56.9 50 63.35
L 51.95 68.4 52.05 68.55 50.7 69.3 47.3 60.3
Q 45.9 56.6 42.7 55.5 39.9 54.5 36.6 55.75 33.5 56.9 32.6 60.35 31.85 63.2 32.8 66 33.6 68.4 37.6 76.4
L 35.85 77.35 33.9 73.45
Q 30.55 67.2 24.3 69.8 21.55 71 20.95 74.7 20.45 77.75 21.5 80.35 21.85 81.35 23.25 84.15
L 25.3 91.9
Q 27.65 100.6 29.2 105.3
L 29.45 106
Q 29.95 107.6 30.45 108.8 31.5 111.45 31.6 111.65 35.05 118.4 41.6 122.2 48 125.9 55.7 125.9 56 125.9 60.3 126 65.35 125.95 70.05 125 84.9 122 92.25 111.45 93.9 109.1 94.8 106.1 96.1 102.1 96.45 96.1 96.85 89.35 95.75 84.8 93.85 77.15 85.55 72.9
L 88.15 60.95
Q 89.5 54.25 90.15 52.15 90.75 50.3 93.15 39.1 95.8 26.85 96.8 20.45
L 97.05 18.95
Q 98.15 12.8 97.85 9.6 Z"/>
</g>

<g id="Layer0_0_MEMBER_3_FILL">
<path fill="#C48E6A" stroke="none" d="
M 85.55 72.85
L 86.3 69.5
Q 79.65 66.55 72.15 65.1 69.45 64.55 68 64.25 65.4 63.75 63.85 63.75 57 63.75 52.65 66.35
L 47.6 56.3
Q 47.6 57.35 47.1 57.65 46.45 58.05 45.8 57.6
L 45.75 57.65
Q 46.8 58.95 47.3 60.35 48.4 63.05 50.3 68.3
L 49.7 69.05 48.3 72.5
Q 47.45 76.65 50.1 80.2
L 51.3 81.35
Q 53.1 82.7 55.95 83.5 56.75 86.5 55.15 88.75 54.35 89.85 53.4 90.35 50.05 92.1 46.55 90
L 43.75 87.55
Q 42.75 86.6 39.2 79.7
L 34.7 70.35
Q 34.65 71.4 34.15 71.75 33.5 72.15 32.8 71.65
L 32.75 71.7
Q 33.4 72.5 33.9 73.45 36.05 77.45 38.9 83.95
L 38.9 83.9 39.6 85.5
Q 41.2 89 41.5 91.15 41.65 92.2 41.5 92.55 40.95 95.05 38.4 96.2
L 35.95 96.85
Q 33.15 97.15 30.5 94.85
L 28.35 92.45 23.3 84.1 25.25 91.55
Q 26.7 94.4 28.65 96.4 29.6 97.4 30.3 97.8 33.85 100.2 37.85 99.35 39.9 98.95 41.2 98.05 42.4 97.2 43.15 95.85
L 43.65 94.7
Q 44.1 93.15 43.75 91.25 47 94.15 51.05 94.05 53.05 94 54.4 93.35 57.4 91.75 58.45 88.6 59.15 86.5 58.85 84.1
L 61 84.35
Q 67.4 84.9 69.65 85.6
L 73 87.05
Q 76.4 89.05 76.7 91.75
L 76.6 93
Q 76.35 94.6 75.6 96.05
L 75.45 97.05
Q 75.45 98.1 76.25 98.35 76.75 98.5 77.65 98.2 78.65 97.9 79.3 97.3 80.4 96.4 80.85 94.15 81.1 93.3 80.95 92.05 80.7 89.5 78.65 87.3 78.1 86.65 77.15 85.85 75.25 84.25 73.25 83.55 70.15 82.5 68.95 82.2 66.8 81.7 62.95 81.3 61.45 81.2 59.45 80.75 55.45 79.9 53.1 78.25 52.35 77.65 51.85 76.55 50.9 74.35 52.35 71.85 52.55 71.45 53.05 70.9 54.1 69.8 55.6 69 60.4 66.4 68.2 67.5
L 74.15 68.85
Q 81 70.6 85.55 72.85 Z"/>
</g>
</defs>

<g id="Layer_1">
<g transform="matrix( 0.5625, 0, 0, 0.5625, 0,0) ">
<use xlink:href="#Layer0_0_MEMBER_0_FILL"/>
</g>

<g transform="matrix( 0.5625, 0, 0, 0.5625, 0,0) ">
<use xlink:href="#Layer0_0_MEMBER_1_FILL"/>
</g>

<g transform="matrix( 0.5625, 0, 0, 0.5625, 0,0) ">
<use xlink:href="#Layer0_0_MEMBER_2_FILL"/>
</g>

<g transform="matrix( 0.5625, 0, 0, 0.5625, 0,0) ">
<use xlink:href="#Layer0_0_MEMBER_3_FILL"/>
</g>
</g>
</svg>
